groups/alkanes/hexyl.svg

<?xml version='1.0' encoding='iso-8859-1'?>
<svg version='1.1' baseProfile='full'
              xmlns='http://www.w3.org/2000/svg'
                      xmlns:rdkit='http://www.rdkit.org/xml'
                      xmlns:xlink='http://www.w3.org/1999/xlink'
                  xml:space='preserve'
width='256px' height='256px' viewBox='0 0 256 256'>
<!-- END OF HEADER -->
<rect style='opacity:1.0;fill:#FFFFFF;stroke:none' width='256.0' height='256.0' x='0.0' y='0.0'> </rect>
<path class='bond-0 atom-0 atom-1' d='M 21.9,127.0 L 53.7,108.7' style='fill:none;fill-rule:evenodd;stroke:#000000;stroke-width:2.0px;stroke-linecap:butt;stroke-linejoin:miter;stroke-opacity:1' />
<path class='bond-1 atom-1 atom-2' d='M 53.7,108.7 L 85.4,127.0' style='fill:none;fill-rule:evenodd;stroke:#000000;stroke-width:2.0px;stroke-linecap:butt;stroke-linejoin:miter;stroke-opacity:1' />
<path class='bond-2 atom-2 atom-3' d='M 85.4,127.0 L 117.2,108.7' style='fill:none;fill-rule:evenodd;stroke:#000000;stroke-width:2.0px;stroke-linecap:butt;stroke-linejoin:miter;stroke-opacity:1' />
<path class='bond-3 atom-3 atom-4' d='M 117.2,108.7 L 148.9,127.1' style='fill:none;fill-rule:evenodd;stroke:#000000;stroke-width:2.0px;stroke-linecap:butt;stroke-linejoin:miter;stroke-opacity:1' />
<path class='bond-4 atom-4 atom-5' d='M 148.9,127.1 L 180.6,108.8' style='fill:none;fill-rule:evenodd;stroke:#000000;stroke-width:2.0px;stroke-linecap:butt;stroke-linejoin:miter;stroke-opacity:1' />
<path class='bond-5 atom-5 atom-6' d='M 180.6,108.8 L 204.5,122.6' style='fill:none;fill-rule:evenodd;stroke:#000000;stroke-width:2.0px;stroke-linecap:butt;stroke-linejoin:miter;stroke-opacity:1' />
<path d='M 52.1,109.6 L 53.7,108.7 L 55.3,109.6' style='fill:none;stroke:#000000;stroke-width:2.0px;stroke-linecap:butt;stroke-linejoin:miter;stroke-miterlimit:10;stroke-opacity:1;' />
<path d='M 83.8,126.1 L 85.4,127.0 L 87.0,126.1' style='fill:none;stroke:#000000;stroke-width:2.0px;stroke-linecap:butt;stroke-linejoin:miter;stroke-miterlimit:10;stroke-opacity:1;' />
<path d='M 115.6,109.6 L 117.2,108.7 L 118.7,109.6' style='fill:none;stroke:#000000;stroke-width:2.0px;stroke-linecap:butt;stroke-linejoin:miter;stroke-miterlimit:10;stroke-opacity:1;' />
<path d='M 147.3,126.2 L 148.9,127.1 L 150.5,126.2' style='fill:none;stroke:#000000;stroke-width:2.0px;stroke-linecap:butt;stroke-linejoin:miter;stroke-miterlimit:10;stroke-opacity:1;' />
<path d='M 179.0,109.7 L 180.6,108.8 L 181.8,109.5' style='fill:none;stroke:#000000;stroke-width:2.0px;stroke-linecap:butt;stroke-linejoin:miter;stroke-miterlimit:10;stroke-opacity:1;' />
<path class='atom-1' d='M31.0941,142.851 C32.2848,142.165 31.3701,140.577 30.1794,141.263 C28.9888,141.949 28.074,140.362 29.2647,139.676 C30.4553,138.99 29.5406,137.402 28.35,138.088 C27.1593,138.774 26.2446,137.187 27.4353,136.501 C28.6259,135.815 27.7112,134.227 26.5206,134.913 C25.3299,135.599 24.4152,134.012 25.6059,133.326 C26.7965,132.64 25.8818,131.052 24.6912,131.738 C23.5005,132.424 22.5858,130.837 23.7765,130.151 C24.9671,129.465 24.0524,127.877 22.8618,128.563 C21.6711,129.249 20.7564,127.662 21.9471,126.976 C23.1377,126.289 22.223,124.702 21.0323,125.388 C19.8417,126.074 18.927,124.486 20.1176,123.8 C21.3083,123.114 20.3936,121.527 19.2029,122.213 C18.0123,122.899 17.0976,121.311 18.2882,120.625 C19.4789,119.939 18.5642,118.352 17.3735,119.038 C16.1829,119.724 15.2682,118.136 16.4588,117.45 C17.6495,116.764 16.7348,115.177 15.5441,115.863 C14.3535,116.549 13.4388,114.961 14.6294,114.275 C15.8201,113.589 14.9054,112.002 13.7147,112.688 C12.5241,113.374 11.6093,111.786 12.8,111.1' style='fill:none;stroke:#7F7F7F;stroke-width:2.0px;stroke-linecap:butt;stroke-linejoin:miter;stroke-opacity:1' />
<text x='205.8' y='138.1' class='atom-6' style='font-size:21px;font-style:normal;font-weight:normal;fill-opacity:1;stroke:none;font-family:sans-serif;text-anchor:start;fill:#000000' >C</text>
<text x='220.9' y='138.1' class='atom-6' style='font-size:21px;font-style:normal;font-weight:normal;fill-opacity:1;stroke:none;font-family:sans-serif;text-anchor:start;fill:#000000' >H</text>
<text x='236.1' y='146.9' class='atom-6' style='font-size:14px;font-style:normal;font-weight:normal;fill-opacity:1;stroke:none;font-family:sans-serif;text-anchor:start;fill:#000000' >3</text>
</svg>

<svg height="256" viewBox="0 0 256 256" width="256" xmlns="http://www.w3.org/2000/svg"><path d="m0 0h256v256h-256z" fill="#fff"/><g fill="none" stroke-width="2"><path d="m21.9 127 31.8-18.3" stroke="#000"/><path d="m53.7 108.7 31.7 18.3" stroke="#000"/><path d="m85.4 127 31.8-18.3" stroke="#000"/><path d="m117.2 108.7 31.7 18.4" stroke="#000"/><path d="m148.9 127.1 31.7-18.3" stroke="#000"/><path d="m180.6 108.8 23.9 13.8" stroke="#000"/><path d="m52.1 109.6 1.6-.9 1.6.9" stroke="#000" stroke-miterlimit="10"/><path d="m83.8 126.1 1.6.9 1.6-.9" stroke="#000" stroke-miterlimit="10"/><path d="m115.6 109.6 1.6-.9 1.5.9" stroke="#000" stroke-miterlimit="10"/><path d="m147.3 126.2 1.6.9 1.6-.9" stroke="#000" stroke-miterlimit="10"/><path d="m179 109.7 1.6-.9 1.2.7" stroke="#000" stroke-miterlimit="10"/><path d="m31.094 142.851c1.191-.686.276-2.274-.915-1.588-1.19.686-2.105-.901-.914-1.587 1.19-.686.276-2.274-.915-1.588s-2.105-.901-.915-1.587c1.191-.686.276-2.274-.914-1.588-1.191.686-2.106-.901-.915-1.587s.276-2.274-.915-1.588c-1.19.686-2.105-.901-.914-1.587 1.19-.686.275-2.274-.915-1.588-1.191.686-2.106-.901-.915-1.587 1.191-.687.276-2.274-.915-1.588-1.19.686-2.105-.902-.914-1.588 1.19-.686.276-2.273-.915-1.587s-2.105-.902-.915-1.588c1.191-.686.276-2.273-.914-1.587-1.191.686-2.106-.902-.915-1.588s.276-2.273-.915-1.587c-1.19.686-2.105-.902-.915-1.588 1.191-.686.276-2.273-.914-1.587-1.191.686-2.106-.902-.915-1.588" stroke="#7f7f7f"/></g><text font-family="sans-serif" font-size="21" x="205.8" y="138.1">C</text><text font-family="sans-serif" font-size="21" x="220.9" y="138.1">H</text><text font-family="sans-serif" font-size="14" x="236.1" y="146.9">3</text></svg>
